X: 4
T:This Is My Love, Do You Like Her
M:12/8
L:1/8
R:Slide
K:ADor
A3 AGE c2B c2d|ege edB g3 g2e|!
def g2e dBA G2A|Bde dBG A2B c2B||!
A3 AGE c2B c2d|ege edB g3 g2e|!
def g2e dBA G2A|Bde dBG A3 ABd|]!
eaa age dgg gfg|eaa agf g2b a2g|!
eaf g2e dBA G2A|Bde dBG A3 ABd||!
eaa age dgg gfg|eaa agf g2b a2g|!
eaf g2e dBA G2A|Bde dBG A2B c2B|]!
